icons/numix/32x32/mimetypes/application-vnd.oasis.opendocument.database.svg

<?xml version="1.0" encoding="UTF-8" standalone="no"?>
<svg
   xmlns:dc="http://purl.org/dc/elements/1.1/"
   xmlns:cc="http://creativecommons.org/ns#"
   xmlns:rdf="http://www.w3.org/1999/02/22-rdf-syntax-ns#"
   xmlns:svg="http://www.w3.org/2000/svg"
   xmlns="http://www.w3.org/2000/svg"
   xmlns:sodipodi="http://sodipodi.sourceforge.net/DTD/sodipodi-0.dtd"
   xmlns:inkscape="http://www.inkscape.org/namespaces/inkscape"
   width="32"
   height="32"
   viewBox="0 0 32 32"
   id="svg2"
   version="1.1"
   inkscape:version="0.48.5 r10040"
   sodipodi:docname="application-vnd.oasis.opendocument.database.svg">
  <metadata
     id="metadata32">
    <rdf:RDF>
      <cc:Work
         rdf:about="">
        <dc:format>image/svg+xml</dc:format>
        <dc:type
           rdf:resource="http://purl.org/dc/dcmitype/StillImage" />
      </cc:Work>
    </rdf:RDF>
  </metadata>
  <defs
     id="defs30" />
  <sodipodi:namedview
     pagecolor="#ffffff"
     bordercolor="#666666"
     borderopacity="1"
     objecttolerance="10"
     gridtolerance="10"
     guidetolerance="10"
     inkscape:pageopacity="0"
     inkscape:pageshadow="2"
     inkscape:window-width="1280"
     inkscape:window-height="970"
     id="namedview28"
     showgrid="true"
     inkscape:zoom="10.429825"
     inkscape:cx="3.0942797"
     inkscape:cy="17.00971"
     inkscape:window-x="0"
     inkscape:window-y="0"
     inkscape:window-maximized="1"
     inkscape:current-layer="svg2">
    <inkscape:grid
       type="xygrid"
       id="grid3030" />
  </sodipodi:namedview>
  <path
     style="fill:#a33639;fill-opacity:1"
     d="M 5.3358879,2.97e-4 C 4.648414,3.12e-4 4,0.676788 4,1.394031 L 4,30.606268 C 4,31.282757 4.687474,32 5.3358879,32 L 26.66322,32 c 0.648414,0 1.335888,-0.717243 1.335888,-1.393732 L 28,8.9999998 19,0 z"
     id="path4-1"
     inkscape:connector-curvature="0"
     sodipodi:nodetypes="ssssssccs" />
  <path
     style="fill:#000000;fill-opacity:0.19599998"
     d="m 4,24 0,6.667969 C 4,31.316407 4.6875,32 5.3320309,32 L 26.667969,32 C 27.3125,32 28,31.316407 28,30.667969 L 28,24 z"
     id="path18"
     inkscape:connector-curvature="0" />
  <path
     style="fill:#000000;fill-opacity:0.19599998"
     d="M 21,8.9999998 28,16 28,8.9999998 z"
     id="path6-4"
     inkscape:connector-curvature="0"
     sodipodi:nodetypes="cccc" />
  <g
     style="fill:#ffffff"
     id="g20"
     transform="matrix(1.0731044,0,0,1.0731044,-0.94783357,-1.2204761)">
    <path
       d="m 10.488281,27.332031 c 0,0.25 0.01172,0.484375 0.02734,0.703125 0.02734,0.214844 0.07031,0.402344 0.128906,0.5625 0.07031,0.160156 0.160157,0.285156 0.277344,0.378906 0.117187,0.09375 0.277344,0.140626 0.472656,0.140626 0.191407,0 0.347657,-0.04688 0.464844,-0.140626 0.121094,-0.09375 0.214844,-0.21875 0.277344,-0.378906 0.06641,-0.167968 0.109375,-0.355468 0.128906,-0.570312 0.02344,-0.214844 0.03516,-0.445313 0.03516,-0.695313 0,-0.246093 -0.01172,-0.476562 -0.03516,-0.691406 -0.01953,-0.222656 -0.0625,-0.410156 -0.128906,-0.570313 -0.0625,-0.160156 -0.152344,-0.285156 -0.269531,-0.378906 -0.117188,-0.09375 -0.273438,-0.140625 -0.472657,-0.140625 -0.195312,0 -0.355469,0.04687 -0.472656,0.140625 -0.117187,0.09375 -0.207031,0.222656 -0.277344,0.386719 -0.05859,0.160156 -0.101562,0.347656 -0.128906,0.5625 -0.01563,0.214844 -0.02734,0.445313 -0.02734,0.691406 m -1.15625,0 c 0,-0.878906 0.183594,-1.542969 0.546875,-1.988281 0.363282,-0.453125 0.867188,-0.675781 1.515625,-0.675781 0.671875,0 1.183594,0.222656 1.535157,0.675781 0.351562,0.445312 0.527343,1.109375 0.527343,1.988281 0,0.882813 -0.179687,1.546875 -0.535156,2 C 12.5625,29.777344 12.058594,30 11.40625,30 c -0.671875,0 -1.1875,-0.222656 -1.546875,-0.667969 -0.351563,-0.453125 -0.527344,-1.117187 -0.527344,-2"
       id="path22"
       inkscape:connector-curvature="0" />
    <path
       d="m 15.34375,29.066406 c 0.03125,0.0078 0.06641,0.0078 0.101562,0.0078 0.03516,0 0.07031,0 0.101563,0 0.257813,0 0.476563,-0.04297 0.648437,-0.128907 0.175782,-0.08984 0.320313,-0.210937 0.425782,-0.363281 0.109375,-0.15625 0.1875,-0.335937 0.230468,-0.546875 0.04688,-0.214844 0.07422,-0.449218 0.07422,-0.703125 0,-0.21875 -0.01953,-0.433593 -0.05469,-0.640625 -0.03906,-0.210937 -0.105469,-0.394531 -0.195313,-0.554687 -0.09375,-0.160157 -0.21875,-0.285157 -0.378906,-0.378907 -0.160156,-0.101562 -0.367187,-0.148437 -0.621094,-0.148437 -0.04687,0 -0.105469,0 -0.164062,0.0078 -0.0625,0 -0.117188,0.0039 -0.167969,0.01562 l 0,3.433594 m 2.738281,-1.734375 c 0,0.476563 -0.07031,0.878907 -0.203125,1.214844 -0.132812,0.332031 -0.3125,0.601563 -0.546875,0.808594 -0.234375,0.210937 -0.515625,0.363281 -0.84375,0.464843 -0.320312,0.09375 -0.671875,0.136719 -1.0625,0.136719 -0.203125,0 -0.402343,-0.0078 -0.601562,-0.03125 -0.191407,-0.01563 -0.394531,-0.04687 -0.617188,-0.08984 l 0,-4.988282 c 0.257813,-0.04687 0.5,-0.08203 0.730469,-0.09766 0.226562,-0.01563 0.441406,-0.02344 0.636719,-0.02344 0.375,0 0.71875,0.04688 1.027343,0.148438 0.3125,0.09766 0.578126,0.253906 0.792969,0.46875 0.21875,0.210938 0.382813,0.480469 0.5,0.808594 0.125,0.324218 0.1875,0.71875 0.1875,1.179687"
       id="path24"
       inkscape:connector-curvature="0" />
    <path
       d="m 22.667969,28.347656 c 0,0.308594 -0.05859,0.566406 -0.175781,0.777344 -0.117188,0.203125 -0.277344,0.367188 -0.480469,0.496094 -0.199219,0.121094 -0.4375,0.207031 -0.714844,0.261718 -0.269531,0.05078 -0.5625,0.07422 -0.878906,0.07422 -0.25,0 -0.511719,-0.01172 -0.785157,-0.03906 -0.269531,-0.02344 -0.539062,-0.05859 -0.804687,-0.109375 l 0,-4.960938 c 0.21875,-0.03125 0.453125,-0.05859 0.714844,-0.08203 0.257812,-0.02734 0.511719,-0.03906 0.765625,-0.03906 0.433594,0 0.78125,0.03906 1.054687,0.121094 0.269531,0.07813 0.484375,0.183594 0.636719,0.316406 0.15625,0.125 0.261719,0.269532 0.316406,0.425782 0.05469,0.160156 0.08203,0.320312 0.08203,0.480468 0,0.242188 -0.06641,0.457032 -0.203126,0.644532 -0.128906,0.1875 -0.304687,0.335937 -0.527343,0.445312 0.386719,0.125 0.652343,0.296875 0.785156,0.511719 0.144531,0.214844 0.214844,0.441406 0.214844,0.675781 m -2.703125,-0.691406 0,1.386719 c 0.08203,0.01172 0.167968,0.01953 0.261718,0.02344 0.09766,0.0078 0.191407,0.0078 0.285157,0.0078 0.128906,0 0.257812,-0.0078 0.378906,-0.02344 0.125,-0.02344 0.230469,-0.05859 0.324219,-0.105469 0.09766,-0.05859 0.179687,-0.132812 0.242187,-0.226562 0.05859,-0.09766 0.08984,-0.222656 0.08984,-0.371094 0,-0.246094 -0.08984,-0.421875 -0.265625,-0.527344 -0.175781,-0.109374 -0.410156,-0.164062 -0.703125,-0.164062 l -0.613281,0 m 0.445312,-0.84375 c 0.289063,0 0.507813,-0.05469 0.65625,-0.164062 0.148438,-0.117188 0.222656,-0.273438 0.222656,-0.472657 0,-0.121093 -0.02344,-0.214843 -0.06641,-0.285156 -0.04297,-0.07813 -0.101562,-0.136719 -0.175781,-0.175781 -0.07422,-0.04297 -0.160156,-0.07031 -0.257813,-0.08203 -0.09766,-0.01562 -0.199218,-0.02344 -0.304687,-0.02344 -0.08594,0 -0.175781,0 -0.269531,0.0078 -0.08984,0.0039 -0.175782,0.01172 -0.25,0.02344 l 0,1.171875 0.445312,0"
       id="path26"
       inkscape:connector-curvature="0" />
  </g>
  <path
     style="fill:#ffffff;fill-opacity:0.39200003"
     d="m 19.000306,2.97e-4 8.991594,8.9997028 -7.613262,0 c -0.672951,0 -1.378332,-0.7134896 -1.378332,-1.3864402 z"
     id="path8-6"
     inkscape:connector-curvature="0"
     sodipodi:nodetypes="ccssc" />
  <g
     style="fill:#ffffff"
     id="g10"
     transform="matrix(0.93772881,0,0,0.93772881,0.9963399,-0.256407)">
    <path
       d="m 16,12 c -2.945312,0 -5.332031,0.746094 -5.332031,1.667969 l 0,1.332031 c 0,0.921875 2.386719,1.667969 5.332031,1.667969 2.945312,0 5.332031,-0.746094 5.332031,-1.667969 l 0,-1.332031 C 21.332031,12.746094 18.945312,12 16,12 z"
       id="path12"
       inkscape:connector-curvature="0" />
    <path
       d="m 15.984375,17.332031 c -2.390625,0 -4.402344,-0.488281 -5.082031,-1.164062 -0.160156,0.15625 -0.234375,0.324219 -0.234375,0.5 l 0,1.332031 c 0,0.921875 2.386719,1.667969 5.332031,1.667969 2.945312,0 5.332031,-0.746094 5.332031,-1.667969 l 0,-1.332031 c 0,-0.175781 -0.09375,-0.34375 -0.25,-0.5 -0.679687,0.675781 -2.710937,1.164062 -5.097656,1.164062 z"
       id="path14"
       inkscape:connector-curvature="0" />
    <path
       d="m 15.984375,20.332031 c -2.390625,0 -4.402344,-0.488281 -5.082031,-1.164062 -0.160156,0.15625 -0.234375,0.324219 -0.234375,0.5 l 0,1.332031 c 0,0.921875 2.386719,1.667969 5.332031,1.667969 2.945312,0 5.332031,-0.746094 5.332031,-1.667969 l 0,-1.332031 c 0,-0.175781 -0.09375,-0.34375 -0.25,-0.5 -0.679687,0.675781 -2.710937,1.164062 -5.097656,1.164062 z"
       id="path16"
       inkscape:connector-curvature="0" />
  </g>
</svg>

<svg width="32" xmlns="http://www.w3.org/2000/svg" height="32" viewBox="0 0 32 32" xmlns:xlink="http://www.w3.org/1999/xlink">
<path style="fill:#a33639" d="M 5.332031 0.667969 C 4.648438 0.667969 4 1.3125 4 2 L 4 30 C 4 30.648438 4.6875 31.332031 5.332031 31.332031 L 26.667969 31.332031 C 27.3125 31.332031 28 30.648438 28 30 L 28 9.332031 L 19.332031 0.667969 Z "/>
<path style="fill:#000;fill-opacity:.196" d="M 19.332031 8 L 19.375 8.042969 L 19.480469 8 Z M 20.667969 9.332031 L 28 16.667969 L 28 9.332031 Z "/>
<path style="fill:#fff;fill-opacity:.392" d="M 19.332031 0.667969 L 28 9.332031 L 20.667969 9.332031 C 20.019531 9.332031 19.332031 8.648438 19.332031 8 Z "/>
<g style="fill:#fff">
<path d="M 16 10.667969 C 13.054688 10.667969 10.667969 11.414062 10.667969 12.332031 L 10.667969 13.667969 C 10.667969 14.585938 13.054688 15.332031 16 15.332031 C 18.945312 15.332031 21.332031 14.585938 21.332031 13.667969 L 21.332031 12.332031 C 21.332031 11.414062 18.945312 10.667969 16 10.667969 Z "/>
<path d="M 15.984375 16 C 13.59375 16 11.582031 15.507812 10.902344 14.832031 C 10.742188 14.992188 10.667969 15.160156 10.667969 15.332031 L 10.667969 16.667969 C 10.667969 17.585938 13.054688 18.332031 16 18.332031 C 18.945312 18.332031 21.332031 17.585938 21.332031 16.667969 L 21.332031 15.332031 C 21.332031 15.160156 21.238281 14.992188 21.082031 14.832031 C 20.402344 15.507812 18.371094 16 15.984375 16 Z "/>
<path d="M 15.984375 19 C 13.59375 19 11.582031 18.507812 10.902344 17.832031 C 10.742188 17.992188 10.667969 18.160156 10.667969 18.332031 L 10.667969 19.667969 C 10.667969 20.585938 13.054688 21.332031 16 21.332031 C 18.945312 21.332031 21.332031 20.585938 21.332031 19.667969 L 21.332031 18.332031 C 21.332031 18.160156 21.238281 17.992188 21.082031 17.832031 C 20.402344 18.507812 18.371094 19 15.984375 19 Z "/>
</g>
<path style="fill:#000;fill-opacity:.196" d="M 4 23.332031 L 4 30 C 4 30.648438 4.6875 31.332031 5.332031 31.332031 L 26.667969 31.332031 C 27.3125 31.332031 28 30.648438 28 30 L 28 23.332031 Z "/>
<g style="fill:#fff">
<path d="M 10.488281 27.332031 C 10.488281 27.582031 10.5 27.816406 10.515625 28.035156 C 10.542969 28.25 10.585938 28.4375 10.644531 28.597656 C 10.714844 28.757812 10.804688 28.882812 10.921875 28.976562 C 11.039062 29.070312 11.199219 29.117188 11.394531 29.117188 C 11.585938 29.117188 11.742188 29.070312 11.859375 28.976562 C 11.980469 28.882812 12.074219 28.757812 12.136719 28.597656 C 12.203125 28.429688 12.246094 28.242188 12.265625 28.027344 C 12.289062 27.8125 12.300781 27.582031 12.300781 27.332031 C 12.300781 27.085938 12.289062 26.855469 12.265625 26.640625 C 12.246094 26.417969 12.203125 26.230469 12.136719 26.070312 C 12.074219 25.910156 11.984375 25.785156 11.867188 25.691406 C 11.75 25.597656 11.59375 25.550781 11.394531 25.550781 C 11.199219 25.550781 11.039062 25.597656 10.921875 25.691406 C 10.804688 25.785156 10.714844 25.914062 10.644531 26.078125 C 10.585938 26.238281 10.542969 26.425781 10.515625 26.640625 C 10.5 26.855469 10.488281 27.085938 10.488281 27.332031 M 9.332031 27.332031 C 9.332031 26.453125 9.515625 25.789062 9.878906 25.34375 C 10.242188 24.890625 10.746094 24.667969 11.394531 24.667969 C 12.066406 24.667969 12.578125 24.890625 12.929688 25.34375 C 13.28125 25.789062 13.457031 26.453125 13.457031 27.332031 C 13.457031 28.214844 13.277344 28.878906 12.921875 29.332031 C 12.5625 29.777344 12.058594 30 11.40625 30 C 10.734375 30 10.21875 29.777344 9.859375 29.332031 C 9.507812 28.878906 9.332031 28.214844 9.332031 27.332031 "/>
<path d="M 15.34375 29.066406 C 15.375 29.074219 15.410156 29.074219 15.445312 29.074219 C 15.480469 29.074219 15.515625 29.074219 15.546875 29.074219 C 15.804688 29.074219 16.023438 29.03125 16.195312 28.945312 C 16.371094 28.855469 16.515625 28.734375 16.621094 28.582031 C 16.730469 28.425781 16.808594 28.246094 16.851562 28.035156 C 16.898438 27.820312 16.925781 27.585938 16.925781 27.332031 C 16.925781 27.113281 16.90625 26.898438 16.871094 26.691406 C 16.832031 26.480469 16.765625 26.296875 16.675781 26.136719 C 16.582031 25.976562 16.457031 25.851562 16.296875 25.757812 C 16.136719 25.65625 15.929688 25.609375 15.675781 25.609375 C 15.628906 25.609375 15.570312 25.609375 15.511719 25.617188 C 15.449219 25.617188 15.394531 25.621094 15.34375 25.632812 L 15.34375 29.066406 M 18.082031 27.332031 C 18.082031 27.808594 18.011719 28.210938 17.878906 28.546875 C 17.746094 28.878906 17.566406 29.148438 17.332031 29.355469 C 17.097656 29.566406 16.816406 29.71875 16.488281 29.820312 C 16.167969 29.914062 15.816406 29.957031 15.425781 29.957031 C 15.222656 29.957031 15.023438 29.949219 14.824219 29.925781 C 14.632812 29.910156 14.429688 29.878906 14.207031 29.835938 L 14.207031 24.847656 C 14.464844 24.800781 14.707031 24.765625 14.9375 24.75 C 15.164062 24.734375 15.378906 24.726562 15.574219 24.726562 C 15.949219 24.726562 16.292969 24.773438 16.601562 24.875 C 16.914062 24.972656 17.179688 25.128906 17.394531 25.34375 C 17.613281 25.554688 17.777344 25.824219 17.894531 26.152344 C 18.019531 26.476562 18.082031 26.871094 18.082031 27.332031 "/>
<path d="M 22.667969 28.347656 C 22.667969 28.65625 22.609375 28.914062 22.492188 29.125 C 22.375 29.328125 22.214844 29.492188 22.011719 29.621094 C 21.8125 29.742188 21.574219 29.828125 21.296875 29.882812 C 21.027344 29.933594 20.734375 29.957031 20.417969 29.957031 C 20.167969 29.957031 19.90625 29.945312 19.632812 29.917969 C 19.363281 29.894531 19.09375 29.859375 18.828125 29.808594 L 18.828125 24.847656 C 19.046875 24.816406 19.28125 24.789062 19.542969 24.765625 C 19.800781 24.738281 20.054688 24.726562 20.308594 24.726562 C 20.742188 24.726562 21.089844 24.765625 21.363281 24.847656 C 21.632812 24.925781 21.847656 25.03125 22 25.164062 C 22.15625 25.289062 22.261719 25.433594 22.316406 25.589844 C 22.371094 25.75 22.398438 25.910156 22.398438 26.070312 C 22.398438 26.3125 22.332031 26.527344 22.195312 26.714844 C 22.066406 26.902344 21.890625 27.050781 21.667969 27.160156 C 22.054688 27.285156 22.320312 27.457031 22.453125 27.671875 C 22.597656 27.886719 22.667969 28.113281 22.667969 28.347656 M 19.964844 27.65625 L 19.964844 29.042969 C 20.046875 29.054688 20.132812 29.0625 20.226562 29.066406 C 20.324219 29.074219 20.417969 29.074219 20.511719 29.074219 C 20.640625 29.074219 20.769531 29.066406 20.890625 29.050781 C 21.015625 29.027344 21.121094 28.992188 21.214844 28.945312 C 21.3125 28.886719 21.394531 28.8125 21.457031 28.71875 C 21.515625 28.621094 21.546875 28.496094 21.546875 28.347656 C 21.546875 28.101562 21.457031 27.925781 21.28125 27.820312 C 21.105469 27.710938 20.871094 27.65625 20.578125 27.65625 L 19.964844 27.65625 M 20.410156 26.8125 C 20.699219 26.8125 20.917969 26.757812 21.066406 26.648438 C 21.214844 26.53125 21.289062 26.375 21.289062 26.175781 C 21.289062 26.054688 21.265625 25.960938 21.222656 25.890625 C 21.179688 25.8125 21.121094 25.753906 21.046875 25.714844 C 20.972656 25.671875 20.886719 25.644531 20.789062 25.632812 C 20.691406 25.617188 20.589844 25.609375 20.484375 25.609375 C 20.398438 25.609375 20.308594 25.609375 20.214844 25.617188 C 20.125 25.621094 20.039062 25.628906 19.964844 25.640625 L 19.964844 26.8125 L 20.410156 26.8125 "/>
</g>
</svg>
